X:1
T:Jellon Graeme
M:4/4
L:1/4
K:Eb
 B| e c BG/2-G/2| BB/2-G/2 FE/2-E/2| GF/2-F/2 G B| c2 z|B/2-B/2| e c B G|\
 BB/2-G/2 F E| G FF/2-G/2 B| c2 z||
